X:1
T:He’s a Wonderful Savior to Me
T:Blanche Kerr Brock
T:He’s a Wonderful Savior to Me 
T:Public Domain
T:Public Domain
T:Public Domain
C:Blanche Kerr Brock
Z:Public Domain
%%score ( 1 2 ) ( 3 4 )
L:1/8
M:4/4
K:Eb
V:1 treble 
V:2 treble 
V:3 bass 
V:4 bass 
V:1
 [EG][EG] | [EG]2 [EG]2 [Gc]3 [GB] | [FA][=EG][FA][_EG] [DF]2 [AB][AB] | %3
w: 1.~I was|lost in sin, but|Je- sus res- cued me, He’s a|
w: 2.~He’s a|friend so true, so|pa- tient and so kind, He’s a|
w: 3.~He is|al- ways near to|com- fort and to cheer, He’s a|
w: 4.~Dear- er|grows the love of|Je- sus day by day, He’s a|
 [Ad][Ac] [GB]2 [FA] [GB]2 [Ac] | [EG]6 [EG][EG] | [EG]2 [EG]2 [Gc]3 [EG] | %6
w: won- der- ful Sav- ior to|me; I was|bound by fear, but|
w: won- der- ful Sav- ior to|me; Ev- ery-|thing I need in|
w: won- der- ful Sav- ior to|me; He for-|gives my sins, He|
w: won- der- ful Sav- ior to|me. Sweet- er|is His grace while|
 [Gc][Gc][Gd][Gd] [Ge]2 [=Ae][Fc] | [Fd] [Fd]2 F [Ec] [Ec]2 [EF] | (DEFG [AB]) || %9
w: Je- sus set me free, He’s a|won- der- ful Sav- ior to||
w: Him I al- ways find, He’s a|won- der- ful Sav- ior to|For * * * *|
w: dries my ev- ery tear, He’s a|won- der- ful Sav- ior to||
w: press- ing on my way, He’s a|won- der- ful Sav- ior to||
"^Refrain" [AB][Ac][Ad] | [Ge][Gd] [Gc]2 [GB] [Gc]2 [Gd] | (D2 F>E D2) [AB][AB] | %12
w: |||
w: a won- der-|ful Sav- ior to me, He’s|a * * * won- der-|
w: |||
w: |||
 [Ad][Ac] [GB]2 [FA] [GB]2 [Ac] | [EG]6 [GB][GB] | [Ge]2 [Gd]2 [Gc]3 [EB] | %15
w: |||
w: Sav- ior to me; I was|lost in sin,|but Je- sus took|
w: |||
w: |||
 [=Ec][GB][FA][EG] F2 [^Fd][Fc] | [GB][^F=A] [GB]2 [_Ac] [Ac]2 [Ad] | [Ge]6 |] %18
w: |||
w: me in: He’s a won- der- ful|ior to me. * * *||
w: |||
w: |||
V:2
 x2 | x8 | x8 | x8 | x8 | x8 | x8 | x3 F x4 | B4- x || x3 | x8 | A6 x2 | x8 | x8 | x8 | x4 ^F2 x2 | %16
w: |||||||me.|||||||||
w: |||||||me.|He’s|||ful||||Sav-|
w: |||||||me.|||||||||
w: |||||||me.|||||||||
 x8 | x6 |] %18
w: ||
w: ||
w: ||
w: ||
V:3
 [E,B,][E,B,] | [E,B,]2 [E,B,]2 [E,E]3 [E,B,] | %2
w: ~ ~|~ ~ ~ ~|
 [B,,B,][B,,B,][B,,B,][B,,B,] [B,,B,]2 [B,,D][B,,D] | %3
w: ~ ~ ~ ~ ~ ~ ~|
 [B,,B,][B,,B,] [B,,B,]2 [B,,B,] [B,,B,]2 [B,,B,] | B,EDC B,2 [E,B,][E,B,] | %5
w: ~ ~ ~ ~ ~ ~|~ So won- der- ful! ~ ~|
 [E,B,]2 [E,B,]2 [E,E]3 [E,B,] | [E,E][E,C][G,=B,][G,B,] C2 [F,C][F,=A,] | %7
w: ~ ~ ~ ~|~ ~ ~ ~ ~ ~ ~|
 [B,,B,] [B,,B,]2 [D,B,] [F,=A,] [F,A,]2 [F,A,] | B,CDE [B,,F] || [B,D][B,D]B, | %10
w: ~ ~ ~ ~ ~ So|won- derful! ~ ~ ~|* ~ ~|
 [E,B,][E,B,] [E,E]2 [E,E] [E,E]2 [E,B,] | F,2 D,>C, B,,2 [B,D][B,D] | %12
w: ~ ~ ~ won- der- ful!|~ ~ ~ ~ ~ ~|
 [B,F][B,D] B,2 [B,,B,] [B,,B,]2 [B,,B,] | E,2 B,>G, E,2 [E,E][E,E] | %14
w: ~ ~ won- der- ful! *||
 [E,B,]2 [E,B,]2 [E,E]3 [E,G,] | [C,G,][=E,C][F,C][G,C] [A,C]2 [=A,C][A,=E] | %16
w: ||
 [B,E][_CE] [B,E]2 [B,D] [B,D]2 [B,,B,] | [E,B,]6 |] %18
w: ||
V:4
 x2 | x8 | x8 | x8 | E,6 x2 | x8 | x4 C2 x2 | x8 | B,,4- x || x2 B, | x8 | B,6 x2 | x2 B,2 x4 | %13
w: ||||~||~||~|~||~||
 B,6 x2 | x8 | x8 | x8 | x6 |] %18
w: |||||

